source/img/header-logo_mobile.svg

<svg width="96" height="15" viewBox="0 0 96 15" fill="none" xmlns="http://www.w3.org/2000/svg">
<path d="M94.9113 6.18874C95.6371 5.72747 96 5.01634 96 4.05535C96 2.79967 95.4774 1.81306 94.4322 1.09552C93.4161 0.365174 92.2185 0 90.8394 0C89.4894 0 88.2555 0.397207 87.1378 1.19162C86.0345 1.97322 85.4829 3.01749 85.4829 4.32443C85.4829 4.81133 85.6353 5.21494 85.9402 5.53527C86.245 5.84278 86.6805 5.99654 87.2467 5.99654C87.7983 5.99654 88.2193 5.84278 88.5096 5.53527C88.8144 5.21494 88.9668 4.81133 88.9668 4.32443C88.9378 3.95285 89.0612 3.57486 89.337 3.19047C89.6128 2.79326 90.1136 2.59466 90.8394 2.59466C91.4491 2.60747 91.8846 2.76123 92.1459 3.05593C92.4217 3.35063 92.5451 3.64533 92.5161 3.94003C92.5161 4.14504 92.4435 4.35005 92.2983 4.55506C92.1532 4.76007 92.0008 4.92024 91.8411 5.03556C91.6959 5.15088 91.4564 5.31745 91.1225 5.53527C90.7886 5.75309 90.5564 5.90685 90.4257 5.99654C89.6709 6.54751 89.2935 7.27785 89.2935 8.18758C89.2935 8.63604 89.4531 9.01403 89.7725 9.32155C90.1064 9.61625 90.5491 9.7636 91.1007 9.7636C91.6524 9.7636 92.0878 9.61625 92.4072 9.32155C92.7411 9.01403 92.908 8.63604 92.908 8.18758C92.908 7.99539 92.9443 7.816 93.0169 7.64943C93.0895 7.48286 93.2056 7.32911 93.3653 7.18816C93.5395 7.04722 93.6846 6.9319 93.8008 6.84221C93.9314 6.75252 94.1201 6.6372 94.3669 6.49625C94.6282 6.35531 94.8097 6.2528 94.9113 6.18874Z" fill="white"/>
<path d="M76.3053 10.2354L80.1618 5.46351C80.5573 4.88748 81.0941 4.56674 81.7722 4.50128C82.4502 4.42273 83.0435 4.58638 83.5521 4.99221C84.0606 5.39805 84.3008 5.94135 84.2725 6.62211V13.4559C84.2725 13.8879 84.103 14.2545 83.764 14.5556C83.4391 14.8436 83.0435 14.9876 82.5774 14.9876C82.1112 14.9876 81.7086 14.8436 81.3696 14.5556C81.0447 14.2545 80.8822 13.8879 80.8822 13.4559V9.21424L77.0257 13.9861C76.6302 14.5622 76.0934 14.8829 75.4153 14.9484C74.7373 15.0269 74.144 14.8633 73.6354 14.4574C73.1269 14.0516 72.8867 13.5083 72.915 12.8275V6.01336C72.915 5.58133 73.0774 5.21477 73.4023 4.91367C73.7413 4.61256 74.144 4.46201 74.6101 4.46201C75.0763 4.46201 75.4718 4.61256 75.7967 4.91367C76.1358 5.21477 76.3053 5.58133 76.3053 6.01336V10.2354Z" fill="white"/>
<path fill-rule="evenodd" clip-rule="evenodd" d="M58.967 13.3889V5.97502C58.967 5.54871 58.7887 5.18234 58.4323 4.87593C58.0901 4.5562 57.6837 4.39633 57.2132 4.39633C56.7569 4.39633 56.3576 4.5562 56.0154 4.87593C55.6732 5.18234 55.5021 5.54871 55.5021 5.97502V5.79517C55.331 5.3955 54.9888 5.05578 54.4755 4.77601C53.9622 4.48292 53.3776 4.33638 52.7217 4.33638C51.4384 4.33638 50.2549 4.80932 49.1712 5.7552C48.1161 6.70109 47.5885 8.00001 47.5885 9.65198C47.5885 11.3439 48.109 12.6562 49.1498 13.5887C50.1907 14.5213 51.3813 14.9876 52.7217 14.9876C53.3776 14.9876 53.955 14.8677 54.4541 14.6279C54.9531 14.3747 55.3167 14.075 55.5449 13.7286C55.6304 14.0883 55.8301 14.3881 56.1438 14.6279C56.4574 14.8543 56.8139 14.9676 57.2132 14.9676C57.6837 14.9676 58.0901 14.8144 58.4323 14.508C58.7887 14.2015 58.967 13.8285 58.967 13.3889ZM53.4968 12.0265C54.6657 12.0265 55.6133 11.0009 55.6133 9.73559C55.6133 8.47034 54.6657 7.44464 53.4968 7.44464C52.328 7.44464 51.3804 8.47034 51.3804 9.73559C51.3804 11.0009 52.328 12.0265 53.4968 12.0265Z" fill="white"/>
<path d="M43.0813 8.23733V6.09447C43.0813 5.65909 43.2578 5.28968 43.6109 4.98624C43.9639 4.6696 44.3758 4.51128 44.8466 4.51128C45.3173 4.51128 45.7292 4.6696 46.0822 4.98624C46.4353 5.28968 46.6118 5.65909 46.6118 6.09447V13.4365C46.6118 13.8719 46.4353 14.2413 46.0822 14.5448C45.7439 14.8482 45.332 14.9999 44.8466 14.9999C44.3611 14.9999 43.9419 14.8482 43.5888 14.5448C43.2505 14.2413 43.0813 13.8719 43.0813 13.4365V11.262H39.264V13.4365C39.264 13.8719 39.0875 14.2413 38.7344 14.5448C38.3961 14.8482 37.9842 14.9999 37.4988 14.9999C37.0133 14.9999 36.5941 14.8482 36.241 14.5448C35.9027 14.2413 35.7335 13.8719 35.7335 13.4365V6.09447C35.7335 5.65909 35.9101 5.28968 36.2631 4.98624C36.6161 4.6696 37.028 4.51128 37.4988 4.51128C37.9695 4.51128 38.3814 4.6696 38.7344 4.98624C39.0875 5.28968 39.264 5.65909 39.264 6.09447V8.23733H43.0813Z" fill="white"/>
<path d="M33.9622 4.51128C34.308 4.51128 34.6045 4.64246 34.8515 4.90482C35.0985 5.16718 35.222 5.7719 35.222 6.1392C35.222 6.50651 35.0985 6.8863 34.8515 7.14866C34.6045 7.41102 34.308 7.5033 33.9622 7.5033H31.0038V13.4743C31.0038 14.6043 30.0103 15 29.014 15C28.0896 15 27.207 14.4993 27.207 13.4849L27.2376 4.51128C27.2376 4.51128 32.3922 4.51128 33.9622 4.51128Z" fill="white"/>
<path d="M12.8551 0V13.3315C12.8551 13.7712 12.6164 14.1441 12.2855 14.4505C11.9684 14.757 11.4699 14.9102 11.0149 14.9102C10.5599 14.9102 9.9021 14.757 9.57117 14.4505C9.25404 14.1441 9.09547 13.7711 9.09547 13.3315V3.00913H3.77227V13.3315C3.77227 13.7711 3.60681 14.1441 3.27589 14.4505C2.95875 14.757 2.31306 14.9102 1.85804 14.9102C1.40303 14.9102 0.806623 14.757 0.475701 14.4505C0.158567 14.1441 0 13.7711 0 13.3315V0C4.26062 0 12.8551 0 12.8551 0Z" fill="white"/>
<path d="M24.6375 13.365C23.5609 14.3757 22.1202 14.8811 20.3154 14.8811C18.5106 14.8811 17.0778 14.3757 16.0171 13.365C14.9247 12.3391 14.3785 11.0569 14.3785 9.51811C14.3785 7.96428 14.9247 6.68199 16.0171 5.67125C17.0778 4.6605 18.5106 4.15513 20.3154 4.15513C22.1202 4.15513 23.5609 4.6605 24.6375 5.67125C25.714 6.69708 26.2523 7.97937 26.2523 9.51811C26.2523 11.0569 25.714 12.3391 24.6375 13.365ZM21.8353 7.93411C21.5345 7.61731 21.1624 7.42874 20.7191 7.36839C20.2917 7.29296 19.88 7.33068 19.4843 7.48154C19.1043 7.63239 18.7797 7.88885 18.5106 8.25091C18.2573 8.61297 18.1465 9.03537 18.1781 9.51811C18.1781 10.1517 18.376 10.6797 18.7718 11.1021C19.1835 11.5094 19.698 11.7131 20.3154 11.7131C20.9487 11.7131 21.4632 11.517 21.859 11.1247C22.2548 10.7174 22.4527 10.1819 22.4527 9.51811C22.4527 8.88451 22.2469 8.35651 21.8353 7.93411Z" fill="white"/>
<path d="M64.0219 4.46201C66.0459 4.46201 71.4392 4.49207 71.4392 4.49207C71.4392 4.49207 71.4433 11.0831 71.4433 13.3863C71.4433 13.8287 71.2612 14.2101 70.8972 14.5305C70.5497 14.8356 70.2353 14.9882 69.7058 14.9882C69.1763 14.9882 68.9064 15.0283 68.5424 14.7232C68.1949 14.4028 67.8752 13.8287 67.8752 13.3863V7.43679H65.4188C65.4188 11.7016 65.4189 12.6387 63.8482 14.1644C63.269 14.7136 62.5244 14.9882 61.6143 14.9882C61.0683 14.9882 60.7474 14.8573 60.4 14.5522C60.0525 14.2318 59.7828 13.7205 59.7828 13.2476C59.7828 12.2296 59.9964 11.8245 60.5424 11.1604C62.1091 11.1604 62.0413 10.7809 61.943 7.89444V6.06381C61.9596 5.62141 62.0413 4.46201 62.0413 4.46201C62.0413 4.46201 63.542 4.46201 64.0219 4.46201Z" fill="white"/>
<path d="M93.1598 12.7451C93.1598 13.9835 92.1101 14.9875 90.8153 14.9875C89.5204 14.9875 88.4707 13.9835 88.4707 12.7451C88.4707 11.5066 89.5204 10.5027 90.8153 10.5027C92.1101 10.5027 93.1598 11.5066 93.1598 12.7451Z" fill="white"/>
</svg>

<svg width="96" height="15" fill="none" xmlns="http://www.w3.org/2000/svg"><path d="M94.91 6.19C95.64 5.73 96 5.02 96 4.06a3.4 3.4 0 0 0-1.57-2.96 6 6 0 0 0-3.6-1.1c-1.34 0-2.57.4-3.7 1.2a3.66 3.66 0 0 0-1.65 3.12c0 .5.16.9.46 1.22.3.3.74.46 1.3.46s.98-.16 1.27-.46c.3-.33.46-.73.46-1.22-.03-.37.1-.75.37-1.13.27-.4.77-.6 1.5-.6.6.02 1.04.17 1.3.47.28.3.4.59.38.88 0 .2-.08.41-.22.62-.15.2-.3.36-.46.48-.14.11-.38.28-.72.5l-.7.46a2.58 2.58 0 0 0-1.13 2.19c0 .45.16.82.48 1.13.34.3.78.44 1.33.44s.99-.14 1.3-.44c.34-.3.5-.68.5-1.13a1.32 1.32 0 0 1 .46-1l.44-.35c.13-.09.32-.2.57-.34l.54-.31ZM76.3 10.24l3.86-4.78c.4-.57.93-.9 1.61-.96.68-.08 1.27.09 1.78.5.51.4.75.94.72 1.62v6.84c0 .43-.17.8-.5 1.1-.33.28-.73.43-1.2.43a1.8 1.8 0 0 1-1.2-.43c-.33-.3-.49-.67-.49-1.1V9.2L77.03 14c-.4.57-.94.9-1.61.96a2.32 2.32 0 0 1-1.78-.5c-.51-.4-.75-.94-.72-1.62V6c0-.43.16-.8.48-1.1.34-.3.74-.45 1.21-.45s.86.15 1.19.45c.34.3.5.67.5 1.1v4.23Z" fill="#fff"/><path fill-rule="evenodd" clip-rule="evenodd" d="M58.97 13.39V5.98c0-.43-.18-.8-.54-1.1a1.73 1.73 0 0 0-1.22-.48c-.45 0-.85.16-1.2.48-.34.3-.5.67-.5 1.1V5.8c-.18-.4-.52-.74-1.03-1.02-.52-.3-1.1-.44-1.76-.44-1.28 0-2.47.47-3.55 1.42a4.97 4.97 0 0 0-1.58 3.9c0 1.68.52 3 1.56 3.93a5.2 5.2 0 0 0 3.57 1.4c.66 0 1.23-.12 1.73-.36.5-.26.87-.56 1.1-.9.08.36.28.66.6.9.3.22.66.34 1.06.34.47 0 .88-.16 1.22-.46.36-.3.54-.68.54-1.12Zm-5.47-1.36c1.17 0 2.11-1.03 2.11-2.3 0-1.26-.94-2.29-2.11-2.29s-2.12 1.03-2.12 2.3c0 1.26.95 2.29 2.12 2.29Z" fill="#fff"/><path d="M43.08 8.24V6.09c0-.43.18-.8.53-1.1a1.8 1.8 0 0 1 1.24-.48c.47 0 .88.16 1.23.48.36.3.53.67.53 1.1v7.35c0 .43-.17.8-.53 1.1-.34.3-.75.46-1.23.46-.49 0-.9-.15-1.26-.46-.34-.3-.5-.67-.5-1.1v-2.18h-3.83v2.18c0 .43-.17.8-.53 1.1-.33.3-.75.46-1.23.46-.49 0-.9-.15-1.26-.46-.34-.3-.5-.67-.5-1.1V6.09c0-.43.17-.8.52-1.1a1.8 1.8 0 0 1 1.24-.48c.47 0 .88.16 1.23.48.36.3.53.67.53 1.1v2.15h3.82ZM33.96 4.51c.35 0 .64.13.9.4.24.26.36.86.36 1.23s-.12.75-.37 1c-.25.27-.54.36-.89.36H31v5.97c0 1.13-.99 1.53-1.99 1.53-.92 0-1.8-.5-1.8-1.52l.03-8.97h6.72ZM12.86 0v13.33c0 .44-.24.81-.57 1.12-.32.3-.82.46-1.28.46-.45 0-1.1-.15-1.44-.46a1.5 1.5 0 0 1-.47-1.12V3.01H3.77v10.32c0 .44-.16.81-.5 1.12-.31.3-.96.46-1.41.46a2.2 2.2 0 0 1-1.38-.46A1.5 1.5 0 0 1 0 13.33V0h12.86ZM24.64 13.37a6.06 6.06 0 0 1-4.32 1.51c-1.8 0-3.24-.5-4.3-1.52a5.06 5.06 0 0 1-1.64-3.84c0-1.56.54-2.84 1.64-3.85a5.97 5.97 0 0 1 4.3-1.51c1.8 0 3.24.5 4.32 1.51a5.1 5.1 0 0 1 1.61 3.85 5.1 5.1 0 0 1-1.61 3.85Zm-2.8-5.44c-.3-.31-.68-.5-1.12-.56a2.29 2.29 0 0 0-1.24.11c-.38.15-.7.4-.97.77-.25.36-.36.79-.33 1.27 0 .63.2 1.16.6 1.58.4.4.92.61 1.54.61.63 0 1.14-.2 1.54-.59.4-.4.6-.94.6-1.6 0-.64-.21-1.16-.62-1.59ZM64.02 4.46l7.42.03v8.9c0 .44-.18.82-.54 1.14-.35.3-.66.46-1.2.46-.52 0-.8.04-1.16-.27a2.1 2.1 0 0 1-.66-1.33V7.44h-2.46c0 4.26 0 5.2-1.57 6.72-.58.55-1.33.83-2.24.83-.54 0-.86-.13-1.21-.44a1.9 1.9 0 0 1-.62-1.3c0-1.02.22-1.43.76-2.09 1.57 0 1.5-.38 1.4-3.27V6.06l.1-1.6h1.98ZM93.16 12.75a2.3 2.3 0 0 1-2.34 2.24c-1.3 0-2.35-1-2.35-2.24a2.3 2.3 0 0 1 2.35-2.25c1.29 0 2.34 1 2.34 2.25Z" fill="#fff"/></svg>
